svgs/thin/vr-cardboard.svg

<svg xmlns="http://www.w3.org/2000/svg" viewBox="0 0 640 512"><!-- Font Awesome Pro 6.0.0-alpha2 by @fontawesome - https://fontawesome.com License - https://fontawesome.com/license (Commercial License) --><path d="M576 64H64C28.801 64 0 92.797 0 128V384C0 419.199 28.801 448 64 448H192.25C217.432 448 240.275 433.234 250.615 410.273L278.375 348.625C286.25 331.125 302.375 320 320 320S353.75 331.125 361.625 348.625L389.375 410.25C399.721 433.227 422.578 448 447.775 448H576C611.199 448 640 419.199 640 384V128C640 92.797 611.199 64 576 64ZM624 384C624 410.467 602.467 432 576 432H447.775C428.906 432 411.711 420.885 403.965 403.68L376.215 342.059C365.812 318.939 343.746 304 320 304S274.188 318.939 263.785 342.057L236.025 403.703C228.285 420.893 211.102 432 192.25 432H64C37.533 432 16 410.467 16 384V128C16 101.533 37.533 80 64 80H576C602.467 80 624 101.533 624 128V384ZM160 176C124.625 176 96 204.625 96 240S124.625 304 160 304S224 275.375 224 240S195.375 176 160 176ZM160 288C133.533 288 112 266.467 112 240S133.533 192 160 192S208 213.533 208 240S186.467 288 160 288ZM480 176C444.625 176 416 204.625 416 240S444.625 304 480 304S544 275.375 544 240S515.375 176 480 176ZM480 288C453.533 288 432 266.467 432 240S453.533 192 480 192S528 213.533 528 240S506.467 288 480 288Z"/></svg>

<svg xmlns="http://www.w3.org/2000/svg" viewBox="0 0 640 512"><!--! Font Awesome Pro 6.3.0 by @fontawesome - https://fontawesome.com License - https://fontawesome.com/license (Commercial License) Copyright 2023 Fonticons, Inc. --><path d="M576 64H64c-35.2 0-64 28.8-64 64v256c0 35.2 28.8 64 64 64l128.3 .0001c25.18 0 48.03-14.77 58.37-37.73l27.76-61.65c7.875-17.5 24-28.63 41.63-28.63s33.75 11.13 41.63 28.63l27.75 61.63c10.35 22.98 33.2 37.75 58.4 37.75L576 448c35.2 0 64-28.8 64-64v-256C640 92.8 611.2 64 576 64zM624 384c0 26.47-21.53 48-48 48h-128.2c-18.87 0-36.06-11.12-43.81-28.32l-27.75-61.62C365.8 318.9 343.7 304 320 304s-45.81 14.94-56.21 38.06l-27.76 61.65C228.3 420.9 211.1 432 192.3 432H64c-26.47 0-48-21.53-48-48V128c0-26.47 21.53-48 48-48h512c26.47 0 48 21.53 48 48V384zM160 176c-35.38 0-64 28.62-64 63.1s28.62 64 64 64s64-28.63 64-64S195.4 176 160 176zM160 288C133.5 288 112 266.5 112 240S133.5 192 160 192s48 21.53 48 48S186.5 288 160 288zM480 176c-35.38 0-64 28.62-64 63.1s28.62 64 64 64s64-28.63 64-64S515.4 176 480 176zM480 288c-26.47 0-48-21.53-48-48S453.5 192 480 192s48 21.53 48 48S506.5 288 480 288z"/></svg>
